X: 1
T: Sir Francis Sitwell
R: strathspey
B: Kerr's II
Z: 2009 John Chambers <jc:trillian.mit.edu>
S: printed MS of unknown origin
M: C
L: 1/16
K: A
e2 \
| "A"c3A EA3 "D"F4 D3F | "A"E3A dcBA "E7"GB3 B3e \
| "A"c3A EA3 "D"F4 D3F | "A"E3A "E7"Ge3 "A"cA3 A2 :|
f2 \
| "A"eA3 "D"fA3 e4 c3f | "A"e3A dcBA "E7"GB3 B3f \
| "A"eA3 "D"fA3 eA3 a3e | "E7"dcBA G3e "A"cA3 A2 |]
f2 \
| "A"eA3 "D"fA3 e4 c3f | "A"e3A dcBA "E7"GB3 B3f \
| "A"c3A EA3 "D"F4 D3F | "A"E3A "E7"Ge3 "A"cA3 A2 |]
